X: 4
T: 4. Drumdelgie
R: Jig
S: 101 Scottish Songs
M: 6/8
L: 1/8
% Q: 330
K: A
|: F | \
"A" E2 E ECE | "F#"  A2 B "Bm" d2 c | "E" B2 E       EDC | "D"  D3 "E" DCD |
"A" E2 E ECE | "F#"  A2 B "Bm" d2 c | "E" B2 E       EFG | "A"  A3     A2B |
"A" c2 c ABc | "D"   d2 c "E"  B2 A | "A" A2 A "F#m" E2C | "Bm" D3 "E" DCD |
"A" E2 E ECE | "F#m" A2 B "Bm" d2 c | "E" B2 E       EFG | "A"  A3     A2 :| [K:G] |
%%newpage
%%textfont Times-Roman 8
%%text November 2005 Dance page 4 of 31
%%textfont Times-Roman 22
% ---------------------------------------------------------
%%center Neidpath Castle
% ---------------------------------------------------------
%%textfont Times-Roman 10
%%center 3x32 Strathspey    1 2 3
